X:98
T:The Maid on the Ladder
B:Terry "Cuz" Teahan "Sliabh Luachra on Parade" 1980
Z:Patrick Cavanagh
M:2/4
L:1/8
R:Polka
K:D
B | Ad FA | DE FA | cc Bc/B/ | AF FB | 
Ad FA | DE FA | cc Bc | d2 d :| 
d | ee cB | AB c2 | ce/c/ Bc/B/ | AF FB | 
Ad FA | DE FA | cc Bc | d2 d :|| 

